symbols/web/auto_awesome_motion/materialsymbolsoutlined/auto_awesome_motion_wght600gradN25fill1_24px.svg

<svg xmlns="http://www.w3.org/2000/svg" height="24" width="24"><path d="M1.575 14.3V4.1q0-1.05.737-1.788.738-.737 1.788-.737h10.2V4.1H4.1v10.2Zm3.95 3.75v-10q0-1.05.738-1.788.737-.737 1.812-.737h9.975V8.05H8.075v10ZM19.9 22.425h-7.875q-1.05 0-1.787-.737Q9.5 20.95 9.5 19.9v-7.875q0-1.05.738-1.787.737-.738 1.787-.738H19.9q1.05 0 1.788.738.737.737.737 1.787V19.9q0 1.05-.737 1.788-.738.737-1.788.737Z"/></svg>

<svg xmlns="http://www.w3.org/2000/svg" height="24" width="24"><path d="M1.575 14.3V4.1Q1.575 3.05 2.312 2.312Q3.05 1.575 4.1 1.575H14.3V4.1H4.1Q4.1 4.1 4.1 4.1Q4.1 4.1 4.1 4.1V14.3ZM5.525 18.05V8.05Q5.525 7 6.263 6.262Q7 5.525 8.075 5.525H18.05V8.05H8.075Q8.075 8.05 8.075 8.05Q8.075 8.05 8.075 8.05V18.05ZM19.9 22.425H12.025Q10.975 22.425 10.238 21.688Q9.5 20.95 9.5 19.9V12.025Q9.5 10.975 10.238 10.238Q10.975 9.5 12.025 9.5H19.9Q20.95 9.5 21.688 10.238Q22.425 10.975 22.425 12.025V19.9Q22.425 20.95 21.688 21.688Q20.95 22.425 19.9 22.425Z"/></svg>
